Numix-GalliumOS/32/mimetypes/application-x-cd-image.svg

<?xml version="1.0" encoding="UTF-8" standalone="no"?>
<svg
   xmlns:dc="http://purl.org/dc/elements/1.1/"
   xmlns:cc="http://creativecommons.org/ns#"
   xmlns:rdf="http://www.w3.org/1999/02/22-rdf-syntax-ns#"
   xmlns:svg="http://www.w3.org/2000/svg"
   xmlns="http://www.w3.org/2000/svg"
   xmlns:sodipodi="http://sodipodi.sourceforge.net/DTD/sodipodi-0.dtd"
   xmlns:inkscape="http://www.inkscape.org/namespaces/inkscape"
   width="32"
   height="32"
   viewBox="0 0 32 32"
   id="svg2"
   version="1.1"
   inkscape:version="0.48.5 r10040"
   sodipodi:docname="application-x-cd-image.svg">
  <metadata
     id="metadata16">
    <rdf:RDF>
      <cc:Work
         rdf:about="">
        <dc:format>image/svg+xml</dc:format>
        <dc:type
           rdf:resource="http://purl.org/dc/dcmitype/StillImage" />
      </cc:Work>
    </rdf:RDF>
  </metadata>
  <defs
     id="defs14" />
  <sodipodi:namedview
     pagecolor="#ffffff"
     bordercolor="#666666"
     borderopacity="1"
     objecttolerance="10"
     gridtolerance="10"
     guidetolerance="10"
     inkscape:pageopacity="0"
     inkscape:pageshadow="2"
     inkscape:window-width="1280"
     inkscape:window-height="970"
     id="namedview12"
     showgrid="false"
     inkscape:zoom="10.429825"
     inkscape:cx="-0.26069158"
     inkscape:cy="20.959534"
     inkscape:window-x="0"
     inkscape:window-y="0"
     inkscape:window-maximized="1"
     inkscape:current-layer="svg2">
    <inkscape:grid
       type="xygrid"
       id="grid3004" />
  </sodipodi:namedview>
  <path
     style="fill:#dcdcdc;fill-opacity:1"
     d="M 5.335888,2.97e-4 C 4.648414,3.12e-4 4,0.6767879 4,1.3940312 L 4,30.606268 C 4,31.282757 4.687474,32 5.335888,32 l 21.327332,0 c 0.648414,0 1.335888,-0.717243 1.335888,-1.393732 L 28,8.9999997 l -9,-9 z"
     id="path4-1"
     inkscape:connector-curvature="0"
     sodipodi:nodetypes="ssssssccs" />
  <path
     style="fill:#000000;fill-opacity:0.19599998"
     d="M 21,8.9999997 28,16 28,8.9999997 z"
     id="path6-4"
     inkscape:connector-curvature="0"
     sodipodi:nodetypes="cccc" />
  <path
     style="fill:#ffffff;fill-opacity:0.39200003"
     d="m 19.000306,2.97e-4 8.991594,8.9997027 -7.613262,0 c -0.672951,0 -1.378332,-0.7134896 -1.378332,-1.3864402 z"
     id="path8-6"
     inkscape:connector-curvature="0"
     sodipodi:nodetypes="ccssc" />
  <path
     style="fill:#888888"
     d="M 16,10 C 11.580181,10 8,13.583488 8,17.997869 8,22.416511 11.580181,26 16,26 20.419819,26 24,22.416511 24,17.997869 24,13.583488 20.419819,10 16,10 z m 0,6 c 1,0 2,1 2,2 0,1.205859 -1,2 -2,2 -1,0 -2,-1 -2,-2 0,-1 1,-2 2,-2 z"
     id="path10"
     inkscape:connector-curvature="0"
     sodipodi:nodetypes="ssssssssss" />
</svg>

<svg xmlns="http://www.w3.org/2000/svg" viewBox="0 0 32 32">
 <path d="m 5.336 0 c -0.687 0 -1.336 0.676 -1.336 1.394 l 0 29.21 c 0 0.676 0.687 1.394 1.336 1.394 l 21.327 0 c 0.648 0 1.336 -0.717 1.336 -1.394 l 0.001 -21.606 l -9 -9 z" style="fill:#dcdcdc;fill-opacity:1"/>
 <path d="m 21 9 7 7 0 -7 z" style="fill:#000;fill-opacity:0.196"/>
 <path d="m 19 0 8.992 9 -7.613 0 c -0.673 0 -1.378 -0.713 -1.378 -1.386 z" style="fill:#fff;fill-opacity:0.392"/>
 <path d="m 16 10 c -4.42 0 -8 3.583 -8 7.998 0 4.419 3.58 8 8 8 4.42 0 8 -3.583 8 -8 0 -4.414 -3.58 -7.998 -8 -7.998 z m 0 6 c 1 0 2 1 2 2 0 1.206 -1 2 -2 2 -1 0 -2 -1 -2 -2 0 -1 1 -2 2 -2 z" style="fill:#888"/>
</svg>
